aloe_vera/img/advantages_4.svg

<svg width="65" height="65" viewBox="0 0 65 65" fill="none" xmlns="http://www.w3.org/2000/svg">
<g clip-path="url(#clip0)">
<path d="M43.6937 28.9384C38.6056 28.9384 32.5847 32.5306 32.4999 35.044C32.4151 32.5305 26.3942 28.9384 21.306 28.9384C13.165 28.9384 8.07701 37.0794 0.953674 40.1322C15.2002 43.185 13.165 56.4142 32.4999 56.4142C51.8347 56.4142 49.7994 43.1852 64.0461 40.1323C56.9227 37.0793 51.8346 28.9384 43.6937 28.9384Z" fill="#F498AC"/>
<path d="M35.6859 31.3647C35.612 31.4104 35.539 31.4562 35.467 31.5027C35.5182 31.6691 35.5474 31.8324 35.5527 31.9913C35.5596 31.7886 35.6055 31.5789 35.6859 31.3647Z" fill="#F17E97"/>
<path d="M35.5527 53.3613C20.2342 53.3613 18.3291 45.0578 11.1135 40.0898H1.04749C1.01614 40.1036 0.985159 40.1187 0.953674 40.1322C15.2002 43.1851 13.165 56.4142 32.4999 56.4142C43.7574 56.4142 47.7704 51.9295 51.9708 47.5798C48.515 50.7498 44.1431 53.3613 35.5527 53.3613Z" fill="#F17E97"/>
<path d="M32.4999 38.097C23.285 38.097 0.953674 40.1322 0.953674 40.1322C18.2532 42.1674 22.3237 46.2379 32.4999 46.2379C42.6761 46.2379 46.7466 42.1674 63.0285 40.1322C63.0284 40.1322 41.7148 38.097 32.4999 38.097Z" fill="#F0F0ED"/>
<path d="M37.5879 44.2027C28.9434 44.2027 24.7032 41.2657 13.0185 39.1337C6.39743 39.6361 0.953552 40.1322 0.953552 40.1322C18.2531 42.1674 22.3236 46.2379 32.4998 46.2379C42.6759 46.2379 46.7464 42.1674 63.0284 40.1322C63.0284 40.1322 61.3207 39.9691 58.6635 39.7354C49.6609 41.7779 45.4425 44.2027 37.5879 44.2027Z" fill="#E8E8E4"/>
<path d="M49.7994 8.586C49.7994 13.6441 52.9886 17.7445 56.9227 17.7445C52.9886 17.7445 49.7994 21.845 49.7994 26.903C49.7994 21.845 46.6102 17.7445 42.6761 17.7445C46.6102 17.7445 49.7994 13.6442 49.7994 8.586Z" fill="#75E0F1"/>
<path d="M39.6232 21.815C39.6232 25.7492 41.9013 28.9383 44.7114 28.9383C41.9014 28.9383 39.6232 32.1275 39.6232 36.0617C39.6232 32.1275 37.3452 28.9383 34.5351 28.9383C37.345 28.9383 39.6232 25.7492 39.6232 21.815Z" fill="#98E8F4"/>
<path d="M54.8874 27.9208C54.8874 31.855 57.1655 35.0442 59.9756 35.0442C57.1656 35.0442 54.8874 38.2334 54.8874 42.1675C54.8874 38.2334 52.6094 35.0442 49.7993 35.0442C52.6094 35.0442 54.8874 31.8549 54.8874 27.9208Z" fill="#98E8F4"/>
<path d="M64.4222 39.2553C63.2706 38.7617 62.0666 38.0783 60.7412 37.1656C60.3068 36.8668 59.713 36.9766 59.4143 37.4104C59.1153 37.8444 59.225 38.4385 59.6589 38.7372C60.2632 39.1532 60.8463 39.5262 61.4141 39.8591C56.5128 41.4918 53.6896 44.4211 50.9476 47.2664C46.8867 51.48 43.0513 55.4601 32.5001 55.4601C21.9489 55.4601 18.1134 51.4802 14.0527 47.2664C12.3623 45.5124 10.6403 43.7268 8.42054 42.2325C12.884 43.0797 16.2467 44.0399 19.1363 44.8655C23.6854 46.1652 27.2785 47.1919 32.5002 47.1919C37.8314 47.1919 41.6237 46.0761 46.0147 44.7838C47.6238 44.3104 49.2878 43.8206 51.1898 43.3303C51.7001 43.1988 52.0071 42.6786 51.8756 42.1683C51.7442 41.6582 51.2247 41.3514 50.7136 41.4827C48.7803 41.9812 47.1006 42.4754 45.4761 42.9536C41.0516 44.2555 37.5567 45.2839 32.5004 45.2839C27.5459 45.2839 24.0661 44.2897 19.6607 43.031C16.781 42.2082 13.4405 41.2538 9.02611 40.4045C16.3625 39.8137 26.9163 39.0509 32.5006 39.0509C36.1475 39.0509 42.1011 39.3674 50.1955 39.9917C50.7226 40.0313 51.1795 39.6393 51.2201 39.1139C51.2606 38.5885 50.8677 38.1298 50.3424 38.0893C42.199 37.4613 36.1962 37.1429 32.5005 37.1429C25.8402 37.1429 12.2408 38.212 5.24214 38.8021C6.61539 37.8636 7.93037 36.8221 9.22098 35.7975C13.0459 32.7607 16.6588 29.8925 21.3067 29.8925C26.319 29.8925 31.4919 33.4469 31.547 35.0764C31.5643 35.5904 31.9862 35.9982 32.5005 35.9982C33.0149 35.9982 33.4365 35.5904 33.454 35.0764C33.4698 34.6097 33.9513 33.9187 34.7422 33.2283C35.1391 32.8819 35.18 32.2791 34.8334 31.8821C34.4871 31.4852 33.8843 31.4444 33.4873 31.7909C33.1 32.1291 32.768 32.4709 32.4938 32.8125C30.4559 30.2798 25.5407 27.9843 21.3067 27.9843C15.9934 27.9843 11.9474 31.1965 8.03473 34.303C5.67074 36.1797 3.22651 38.1203 0.578518 39.2552C0.203372 39.416 -0.0347923 39.8153 0.00469014 40.2219C0.0444265 40.6304 0.352161 40.979 0.754602 41.0649C6.64282 42.3268 9.57493 45.3692 12.6792 48.5903C16.8379 52.9057 21.1383 57.3679 32.5005 57.3679C43.8627 57.3679 48.1631 52.9057 52.3218 48.5903C55.4261 45.3691 58.3582 42.3265 64.2465 41.0647C64.6421 40.9801 64.9476 40.6435 64.9943 40.2418C65.0419 39.8276 64.8059 39.4197 64.4222 39.2553Z" fill="black"/>
<path d="M42.6761 18.6985C46.0779 18.6985 48.8453 22.3792 48.8453 26.9031C48.8453 27.43 49.2724 27.8572 49.7994 27.8572C50.3264 27.8572 50.7534 27.43 50.7534 26.9031C50.7534 22.3792 53.521 18.6985 56.9227 18.6985C57.4497 18.6985 57.8768 18.2713 57.8768 17.7445C57.8768 17.2176 57.4497 16.7904 56.9227 16.7904C53.5209 16.7904 50.7534 13.1098 50.7534 8.58583C50.7534 8.05897 50.3264 7.63177 49.7994 7.63177C49.2724 7.63177 48.8453 8.05897 48.8453 8.58583C48.8453 13.1098 46.0778 16.7904 42.6761 16.7904C42.1491 16.7904 41.722 17.2176 41.722 17.7445C41.722 18.2713 42.1491 18.6985 42.6761 18.6985ZM49.7994 13.3505C50.6207 15.267 51.9215 16.8163 53.4989 17.7445C51.9215 18.6726 50.6207 20.222 49.7994 22.1385C48.9781 20.222 47.6772 18.6726 46.0999 17.7445C47.6772 16.8163 48.9781 15.267 49.7994 13.3505Z" fill="black"/>
<path d="M34.5351 29.8924C36.776 29.8924 38.6692 32.7176 38.6692 36.0617C38.6692 36.5885 39.0962 37.0157 39.6232 37.0157C40.1502 37.0157 40.5773 36.5885 40.5773 36.0617C40.5773 32.7175 42.4704 29.8924 44.7114 29.8924C45.2383 29.8924 45.6654 29.4652 45.6654 28.9384C45.6654 28.4115 45.2383 27.9843 44.7114 27.9843C42.4704 27.9843 40.5773 25.1591 40.5773 21.815C40.5773 21.2882 40.1502 20.861 39.6232 20.861C39.0962 20.861 38.6692 21.2882 38.6692 21.815C38.6692 25.1592 36.776 27.9843 34.5351 27.9843C34.0081 27.9843 33.581 28.4115 33.581 28.9384C33.581 29.4652 34.0081 29.8924 34.5351 29.8924ZM38.9092 27.4065C39.1779 27.0304 39.4164 26.6243 39.6231 26.1938C39.8298 26.6243 40.0683 27.0304 40.3369 27.4065C40.7815 28.029 41.2877 28.5428 41.8385 28.9385C41.2876 29.3342 40.7815 29.848 40.3369 30.4704C40.0683 30.8466 39.8298 31.2527 39.6231 31.6832C39.4164 31.2527 39.1779 30.8466 38.9092 30.4704C38.4646 29.848 37.9585 29.3342 37.4076 28.9385C37.9586 28.5426 38.4646 28.0289 38.9092 27.4065Z" fill="black"/>
<path d="M55.8415 27.9208C55.8415 27.3939 55.4144 26.9667 54.8874 26.9667C54.3604 26.9667 53.9334 27.3939 53.9334 27.9208C53.9334 31.265 52.0402 34.0901 49.7993 34.0901C49.2723 34.0901 48.8452 34.5173 48.8452 35.0441C48.8452 35.571 49.2723 35.9982 49.7993 35.9982C52.0402 35.9982 53.9334 38.8234 53.9334 42.1675C53.9334 42.6943 54.3604 43.1215 54.8874 43.1215C55.4144 43.1215 55.8415 42.6943 55.8415 42.1675C55.8415 38.8233 57.7346 35.9982 59.9756 35.9982C60.5026 35.9982 60.9296 35.571 60.9296 35.0441C60.9296 34.5173 60.5026 34.0901 59.9756 34.0901C57.7346 34.0901 55.8415 31.2649 55.8415 27.9208ZM55.6013 36.576C55.3326 36.9521 55.0941 37.3582 54.8874 37.7887C54.6807 37.3582 54.4422 36.9521 54.1736 36.576C53.729 35.9535 53.2228 35.4397 52.672 35.044C53.2228 34.6483 53.729 34.1345 54.1736 33.5121C54.4422 33.1359 54.6807 32.7298 54.8874 32.2993C55.0941 32.7298 55.3326 33.1359 55.6013 33.5121C56.0459 34.1345 56.552 34.6483 57.1029 35.044C56.552 35.4398 56.0459 35.9536 55.6013 36.576Z" fill="black"/>
</g>
<defs>
<clipPath id="clip0">
<rect width="65" height="65" fill="white"/>
</clipPath>
</defs>
</svg>

<svg width="65" height="65" fill="none" xmlns="http://www.w3.org/2000/svg"><g clip-path="url(#clip0)"><path d="M43.694 28.938c-5.088 0-11.11 3.593-11.194 6.106-.085-2.513-6.106-6.106-11.194-6.106-8.141 0-13.229 8.141-20.352 11.194C15.2 43.185 13.165 56.414 32.5 56.414s17.3-13.229 31.546-16.282c-7.123-3.053-12.211-11.194-20.352-11.194z" fill="#F498AC"/><path d="M35.686 31.365a8.098 8.098 0 00-.219.138c.051.166.08.33.086.488a1.98 1.98 0 01.133-.626zm-.133 21.996c-15.319 0-17.224-8.303-24.44-13.271H1.048l-.093.042C15.2 43.185 13.165 56.414 32.5 56.414c11.257 0 15.27-4.485 19.47-8.834-3.455 3.17-7.827 5.781-16.417 5.781z" fill="#F17E97"/><path d="M32.5 38.097c-9.215 0-31.546 2.035-31.546 2.035 17.3 2.035 21.37 6.106 31.546 6.106 10.176 0 14.247-4.07 30.529-6.106 0 0-21.314-2.035-30.53-2.035z" fill="#F0F0ED"/><path d="M37.588 44.203c-8.645 0-12.885-2.937-24.57-5.07-6.62.503-12.064 1-12.064 1 17.3 2.034 21.37 6.105 31.546 6.105 10.176 0 14.246-4.07 30.528-6.106 0 0-1.707-.163-4.364-.397-9.003 2.043-13.221 4.468-21.076 4.468z" fill="#E8E8E4"/><path d="M49.8 8.586c0 5.058 3.189 9.158 7.123 9.158-3.934 0-7.124 4.101-7.124 9.159 0-5.058-3.189-9.159-7.123-9.159 3.934 0 7.123-4.1 7.123-9.158z" fill="#75E0F1"/><path d="M39.623 21.815c0 3.934 2.278 7.123 5.088 7.123-2.81 0-5.088 3.19-5.088 7.124 0-3.934-2.278-7.124-5.088-7.124 2.81 0 5.088-3.189 5.088-7.123zm15.264 6.105c0 3.935 2.279 7.124 5.089 7.124-2.81 0-5.089 3.19-5.089 7.123 0-3.934-2.278-7.123-5.088-7.123 2.81 0 5.088-3.19 5.088-7.123z" fill="#98E8F4"/><path d="M64.422 39.255c-1.151-.493-2.355-1.177-3.68-2.09a.954.954 0 00-1.083 1.572 28.71 28.71 0 001.755 1.122c-4.901 1.633-7.724 4.562-10.466 7.407C46.887 51.48 43.05 55.46 32.5 55.46s-14.387-3.98-18.447-8.194c-1.69-1.754-3.413-3.54-5.632-5.033 4.463.847 7.826 1.807 10.715 2.633 4.55 1.3 8.143 2.326 13.364 2.326 5.331 0 9.124-1.116 13.515-2.408 1.609-.474 3.273-.963 5.175-1.454a.954.954 0 10-.476-1.847c-1.934.498-3.613.992-5.238 1.47-4.424 1.302-7.92 2.33-12.976 2.33-4.954 0-8.434-.993-12.84-2.252-2.879-.823-6.22-1.777-10.634-2.627 7.337-.59 17.89-1.353 23.475-1.353 3.647 0 9.6.316 17.695.94a.954.954 0 10.146-1.902c-8.143-.628-14.146-.946-17.841-.946-6.66 0-20.26 1.069-27.259 1.66 1.373-.94 2.688-1.98 3.979-3.005 3.825-3.037 7.438-5.906 12.086-5.906 5.012 0 10.185 3.555 10.24 5.184a.954.954 0 001.907 0c.016-.466.497-1.157 1.288-1.848a.954.954 0 00-1.255-1.437 8.14 8.14 0 00-.993 1.021c-2.038-2.532-6.953-4.828-11.187-4.828-5.314 0-9.36 3.212-13.272 6.319C5.67 36.18 3.227 38.12.579 39.255a.964.964 0 00-.574.967c.04.408.347.757.75.843 5.888 1.262 8.82 4.304 11.924 7.525 4.159 4.316 8.46 8.778 19.822 8.778 11.362 0 15.662-4.462 19.82-8.778 3.105-3.22 6.037-6.264 11.925-7.525a.963.963 0 00.748-.823.963.963 0 00-.572-.987zM42.676 18.698c3.402 0 6.17 3.681 6.17 8.205a.954.954 0 101.907 0c0-4.524 2.768-8.204 6.17-8.204a.954.954 0 100-1.909c-3.402 0-6.17-3.68-6.17-8.204a.954.954 0 10-1.908 0c0 4.524-2.767 8.204-6.169 8.204a.954.954 0 100 1.909zM49.8 13.35c.822 1.917 2.123 3.466 3.7 4.394-1.578.929-2.878 2.478-3.7 4.395-.82-1.917-2.122-3.466-3.7-4.395 1.578-.928 2.88-2.477 3.7-4.393z" fill="#000"/><path d="M34.535 29.892c2.241 0 4.134 2.826 4.134 6.17a.954.954 0 101.908 0c0-3.344 1.893-6.17 4.134-6.17a.954.954 0 000-1.908c-2.24 0-4.134-2.825-4.134-6.169a.954.954 0 00-1.908 0c0 3.344-1.893 6.17-4.134 6.17a.954.954 0 100 1.907zm4.374-2.485c.269-.377.507-.783.714-1.213.207.43.445.836.714 1.213.444.622.95 1.136 1.502 1.532a6.573 6.573 0 00-1.502 1.531 8.176 8.176 0 00-.714 1.213 8.167 8.167 0 00-.714-1.213 6.576 6.576 0 00-1.501-1.531 6.578 6.578 0 001.501-1.532zm16.933.513a.954.954 0 10-1.909 0c0 3.345-1.893 6.17-4.134 6.17a.954.954 0 100 1.908c2.241 0 4.134 2.825 4.134 6.17a.954.954 0 101.909 0c0-3.345 1.893-6.17 4.134-6.17a.954.954 0 100-1.908c-2.241 0-4.134-2.825-4.134-6.17zm-.24 8.656a8.161 8.161 0 00-.715 1.213 8.17 8.17 0 00-.713-1.213 6.576 6.576 0 00-1.502-1.532 6.578 6.578 0 001.502-1.532 8.13 8.13 0 00.713-1.213c.207.43.446.837.714 1.213a6.578 6.578 0 001.502 1.532 6.597 6.597 0 00-1.502 1.532z" fill="#000"/></g><defs><clipPath id="clip0"><path fill="#fff" d="M0 0h65v65H0z"/></clipPath></defs></svg>
